svg/SJJB-OpenStreetMapIcons/sport/skiing_crosscountry.svg

<?xml version="1.0" encoding="UTF-8" standalone="no"?>
<!-- Created with Inkscape (http://www.inkscape.org/) -->
<svg
   xmlns:dc="http://purl.org/dc/elements/1.1/"
   xmlns:cc="http://creativecommons.org/ns#"
   xmlns:rdf="http://www.w3.org/1999/02/22-rdf-syntax-ns#"
   xmlns:svg="http://www.w3.org/2000/svg"
   xmlns="http://www.w3.org/2000/svg"
   xmlns:sodipodi="http://sodipodi.sourceforge.net/DTD/sodipodi-0.dtd"
   xmlns:inkscape="http://www.inkscape.org/namespaces/inkscape"
   version="1.0"
   width="580"
   height="580"
   id="svg2"
   sodipodi:version="0.32"
   inkscape:version="0.46"
   sodipodi:docname="sport_skiing_crosscountry.svg"
   sodipodi:docbase="s:\Data\FacilityIcons"
   inkscape:output_extension="org.inkscape.output.svg.inkscape">
  <metadata
     id="metadata2975">
    <rdf:RDF>
      <cc:Work
         rdf:about="">
        <dc:format>image/svg+xml</dc:format>
        <dc:type
           rdf:resource="http://purl.org/dc/dcmitype/StillImage" />
			  <cc:license
           rdf:resource="http://web.resource.org/cc/PublicDomain" />
        <dc:language>en</dc:language>
      </cc:Work>
    </rdf:RDF>
  </metadata>
  <sodipodi:namedview
     inkscape:window-height="947"
     inkscape:window-width="1048"
     inkscape:pageshadow="2"
     inkscape:pageopacity="0.0"
     guidetolerance="10.0"
     gridtolerance="10.0"
     objecttolerance="10.0"
     borderopacity="1.0"
     bordercolor="#666666"
     pagecolor="#ffffff"
     id="base"
     inkscape:zoom="0.92167712"
     inkscape:cx="301.5186"
     inkscape:cy="281.19503"
     inkscape:window-x="91"
     inkscape:window-y="25"
     inkscape:current-layer="svg2"
     showgrid="false" />
  <defs
     id="defs4">
    <inkscape:perspective
       sodipodi:type="inkscape:persp3d"
       inkscape:vp_x="0 : 290 : 1"
       inkscape:vp_y="0 : 1000 : 0"
       inkscape:vp_z="580 : 290 : 1"
       inkscape:persp3d-origin="290 : 193.33333 : 1"
       id="perspective2441" />
    <inkscape:perspective
       id="perspective3452"
       inkscape:persp3d-origin="30 : 20 : 1"
       inkscape:vp_z="60 : 30 : 1"
       inkscape:vp_y="0 : 1000 : 0"
       inkscape:vp_x="0 : 30 : 1"
       sodipodi:type="inkscape:persp3d" />
    <symbol
       viewBox="244.5 110 489 219.9"
       id="symbol-university">
      <path
         id="path4460"
         d="M79,43l57,119c0,0,21-96,104-96s124,106,124,106l43-133l82-17L0,17L79,43z" />
      <path
         id="path4462"
         d="M94,176l-21,39"
         stroke-width="20"
         stroke="#000000"
         fill="none" />
      <path
         id="path4464"
         d="M300,19c0,10.5-22.6,19-50.5,19S199,29.5,199,19s22.6-19,50.5-19S300,8.5,300,19z" />
      <path
         id="path4466"
         d="M112,216l-16-38L64,88c0,0-9-8-4-35s16-24,16-24"
         stroke-width="20"
         stroke="#000000"
         ill="none" />
    </symbol>
    <inkscape:perspective
       id="perspective4471"
       inkscape:persp3d-origin="372.04724 : 350.78739 : 1"
       inkscape:vp_z="744.09448 : 526.18109 : 1"
       inkscape:vp_y="0 : 1000 : 0"
       inkscape:vp_x="0 : 526.18109 : 1"
       sodipodi:type="inkscape:persp3d" />
    <inkscape:perspective
       id="perspective4668"
       inkscape:persp3d-origin="6 : 4 : 1"
       inkscape:vp_z="12 : 6 : 1"
       inkscape:vp_y="0 : 1000 : 0"
       inkscape:vp_x="0 : 6 : 1"
       sodipodi:type="inkscape:persp3d" />
  </defs>
  <g
     id="g1327">
    <path
       d="M 66.275,1.768 C 24.94,1.768 1.704,23.139 1.704,66.804 L 1.704,516.927 C 1.704,557.771 22.599,579.156 63.896,579.156 L 515.92,579.156 C 557.227,579.156 578.149,558.841 578.149,516.927 L 578.149,66.804 C 578.149,24.203 557.227,1.768 514.628,1.768 C 514.624,1.768 66.133,1.625 66.275,1.768 z "
       style="fill:#111;stroke:#eee;stroke-width:3.40799999"
       id="path1329" />
  </g>
  <g
     id="layer3"
     inkscape:label="Layout"
     style="display:none;stroke:#757575;stroke-opacity:1"
     transform="matrix(48.14969,0,0,48.14969,-536.27327,-33.306752)">
    <rect
       style="fill:none;stroke:#757575;stroke-width:0.10000000000000001;stroke-miterlimit:4;stroke-dasharray:none;stroke-opacity:1;display:inline"
       id="rect4134"
       width="10"
       height="10"
       x="1"
       y="1" />
    <rect
       style="fill:none;stroke:#757575;stroke-width:0.10000000000000001;stroke-miterlimit:4;stroke-dasharray:none;stroke-opacity:1;display:inline"
       id="rect4136"
       width="8"
       height="8"
       x="2"
       y="2" />
  </g>
  <path
     transform="matrix(14.685839,0,0,14.685839,565.76584,1146.0639)"
     style="font-size:40px;font-style:normal;font-variant:normal;font-weight:normal;font-stretch:normal;text-align:start;line-height:125%;writing-mode:lr-tb;text-anchor:start;fill:#ffffff;fill-opacity:1;stroke:none;stroke-width:1px;stroke-linecap:butt;stroke-linejoin:miter;stroke-opacity:1;font-family:NPSPICT3;-inkscape-font-specification:NPSPICT3"
     d="M -4.1430664,-43.068604 L -30.782471,-43.068604 L -30.782471,-41.947998 L -4.1430664,-41.947998 C -3.3960318,-41.948002 -2.7557736,-42.214726 -2.22229,-42.748169 C -1.6888801,-43.281619 -1.4221568,-43.921877 -1.4221191,-44.668945 L -2.5024414,-44.668945 C -2.502478,-44.215659 -2.6623899,-43.835614 -2.9821777,-43.528809 C -3.3020377,-43.222008 -3.6890002,-43.068607 -4.1430664,-43.068604 L -4.1430664,-43.068604 z M -10.462646,-69.46875 C -9.742461,-69.468727 -9.1156305,-69.728736 -8.5821533,-70.248779 C -8.0487371,-70.768774 -7.7820137,-71.401912 -7.7819824,-72.148193 C -7.7820137,-72.895237 -8.0487371,-73.528781 -8.5821533,-74.048828 C -9.1156305,-74.568819 -9.742461,-74.828829 -10.462646,-74.828857 C -11.208931,-74.828829 -11.842068,-74.568819 -12.362061,-74.048828 C -12.882106,-73.528781 -13.142116,-72.895237 -13.14209,-72.148193 C -13.142116,-71.401912 -12.882106,-70.768774 -12.362061,-70.248779 C -11.842068,-69.728736 -11.208931,-69.468727 -10.462646,-69.46875 L -10.462646,-69.46875 z M -28.062744,-45.468506 C -27.768973,-45.20158 -27.408866,-45.068116 -26.982422,-45.068115 C -26.502291,-45.068116 -25.9957,-45.254884 -25.462646,-45.628418 L -26.262207,-46.468262 C -26.502291,-46.308756 -26.728935,-46.229004 -26.942139,-46.229004 C -27.155367,-46.229004 -27.315686,-46.282308 -27.423096,-46.388916 L -27.462158,-46.427979 L -36.342773,-55.348877 L -36.342773,-53.788818 L -28.062744,-45.468506 z M -27.182617,-63.268799 L -36.262207,-63.268799 L -36.262207,-62.188477 L -27.182617,-62.188477 L -27.182617,-63.268799 z M -11.82251,-44.628662 L -1.4624023,-65.428223 L -2.5024414,-65.868896 L -12.982178,-44.628662 L -11.82251,-44.628662 z M -32.662354,-56.868652 C -33.169358,-56.868642 -33.596197,-56.708526 -33.942871,-56.388306 C -34.289556,-56.068065 -34.462895,-55.654857 -34.462891,-55.148682 C -34.462895,-54.66853 -34.289556,-54.261833 -33.942871,-53.928589 C -33.596197,-53.595329 -33.182786,-53.428704 -32.702637,-53.428711 L -25.462646,-53.428711 C -25.168878,-53.428704 -24.902358,-53.455152 -24.663086,-53.508057 C -24.049494,-53.614657 -23.622655,-53.801425 -23.382568,-54.068359 L -19.822998,-58.02832 L -15.662842,-54.028076 L -17.342529,-46.548828 C -17.396262,-46.388509 -17.423117,-46.255045 -17.423096,-46.148438 C -17.423117,-45.668295 -17.249778,-45.254884 -16.903076,-44.908203 C -16.556419,-44.561525 -16.143008,-44.388185 -15.662842,-44.388184 C -14.756291,-44.388185 -14.195988,-44.8549 -13.981934,-45.78833 L -11.942139,-54.86792 C -11.702094,-55.828197 -11.808702,-56.534983 -12.261963,-56.988281 L -15.9021,-60.628418 L -11.942139,-65.228027 L -9.3823242,-62.668213 C -9.1154271,-62.402083 -8.808624,-62.269027 -8.4619141,-62.269043 C -8.0086574,-62.269027 -7.5687978,-62.468815 -7.142334,-62.868408 L -2.9821777,-67.028564 C -2.7689979,-67.29547 -2.6623899,-67.588846 -2.6623535,-67.908691 C -2.6623899,-68.308246 -2.8023637,-68.641498 -3.0822754,-68.908447 C -3.362259,-69.175351 -3.6890002,-69.308815 -4.0625,-69.308838 C -4.4360698,-69.308815 -4.7294451,-69.202207 -4.942627,-68.989014 L -8.3825684,-65.547852 L -12.542725,-69.708008 C -12.862575,-70.028622 -13.262558,-70.188941 -13.742676,-70.188965 L -20.262451,-70.188965 C -20.66286,-70.188941 -21.00954,-70.028622 -21.30249,-69.708008 L -25.782471,-64.548096 C -26.102308,-64.281964 -26.26222,-63.948713 -26.262207,-63.54834 C -26.26222,-63.174788 -26.12896,-62.85476 -25.862427,-62.588257 C -25.59592,-62.32172 -25.275893,-62.188461 -24.902344,-62.188477 C -24.502781,-62.188461 -24.156102,-62.348372 -23.862305,-62.668213 L -19.702148,-67.508301 L -17.302246,-67.468018 L -26.462402,-56.828369 L -32.662354,-56.868652 z"
     id="flowRoot3192" />
</svg>

<svg xmlns="http://www.w3.org/2000/svg" viewBox="0 0 580 580"><path d="m66.28 1.768c-41.34 0-64.57 21.371-64.57 65.04v450.12c0 40.844 20.895 62.23 62.19 62.23h452.02c41.31 0 62.23-20.315 62.23-62.23v-450.12c0-42.601-20.922-65.04-63.52-65.04-.004 0-448.5-.143-448.35 0z" fill="#111" stroke="#eee" stroke-width="3.408"/><path transform="matrix(14.68584 0 0 14.68584 565.77 1146.06)" d="m-4.143-43.07h-26.639v1.121h26.639c.747 0 1.387-.267 1.921-.8.533-.533.8-1.174.8-1.921h-1.08c0 .453-.16.833-.48 1.14-.32.307-.707.46-1.161.46m-6.32-26.4c.72 0 1.347-.26 1.88-.78.533-.52.8-1.153.8-1.899 0-.747-.267-1.381-.8-1.901-.533-.52-1.16-.78-1.88-.78-.746 0-1.379.26-1.899.78-.52.52-.78 1.154-.78 1.901 0 .746.26 1.379.78 1.899.52.52 1.153.78 1.899.78m-17.6 24c.294.267.654.4 1.08.4.48 0 .987-.187 1.52-.56l-.8-.84c-.24.16-.467.239-.68.239-.213 0-.374-.053-.481-.16l-.039-.039-8.881-8.921v1.56l8.28 8.32m.88-17.8h-9.08v1.08h9.08v-1.08m15.36 18.64l10.36-20.8-1.04-.441-10.48 21.24h1.16m-20.84-12.24c-.507 0-.934.16-1.281.48-.347.32-.52.733-.52 1.24 0 .48.173.887.52 1.22.347.333.76.5 1.24.5h7.24c.294 0 .56-.026.8-.079.614-.107 1.04-.293 1.281-.56l3.56-3.96 4.16 4-1.68 7.479c-.054.16-.081.294-.081.4 0 .48.173.894.52 1.24.347.347.76.52 1.24.52.907 0 1.467-.467 1.681-1.4l2.04-9.08c.24-.96.133-1.667-.32-2.12l-3.64-3.64 3.96-4.6 2.56 2.56c.267.266.574.399.92.399.453 0 .893-.2 1.32-.599l4.16-4.16c.213-.267.32-.56.32-.88 0-.4-.14-.733-.42-1-.28-.267-.607-.4-.98-.4-.374 0-.667.107-.88.32l-3.44 3.441-4.16-4.16c-.32-.321-.72-.481-1.2-.481h-6.52c-.4 0-.747.16-1.04.481l-4.48 5.16c-.32.266-.48.599-.48 1 0 .374.133.694.4.96.267.267.587.4.96.4.4 0 .746-.16 1.04-.48l4.16-4.84 2.4.04-9.16 10.64-6.2-.04" fill="#fff"/></svg>
